assets/images/footer-img2.svg

<svg width="31" height="10" viewBox="0 0 31 10" fill="none" xmlns="http://www.w3.org/2000/svg">
<path id="Vector" d="M16.0324 3.19688C16.0148 4.58993 17.2752 5.36725 18.2247 5.82946C19.2003 6.30365 19.5279 6.60776 19.5241 7.03186C19.5168 7.68084 18.7459 7.96729 18.0246 7.97842C16.766 7.9979 16.0343 7.63899 15.4525 7.36754L14.9992 9.48674C15.5828 9.75541 16.6636 9.98972 17.7843 10C20.4151 10 22.1362 8.70276 22.1455 6.69146C22.1558 4.13884 18.611 3.99756 18.6352 2.85661C18.6436 2.51064 18.9741 2.14146 19.6982 2.04759C20.0566 2.00017 21.0461 1.96388 22.1679 2.47992L22.6082 0.429549C22.0049 0.210117 21.2296 0 20.2642 0C17.7881 0 16.0465 1.3149 16.0324 3.19688ZM26.839 0.17661C26.3586 0.17661 25.9538 0.456525 25.7731 0.886074L22.0152 9.8494H24.644L25.1672 8.40519H28.3795L28.683 9.8494H31L28.9781 0.17661H26.839ZM27.2067 2.78959L27.9654 6.42183H25.8877L27.2067 2.78959ZM12.8451 0.176731L10.773 9.84928H13.2781L15.3492 0.176489L12.8451 0.176731ZM9.13931 0.176489L6.53192 6.76029L5.47719 1.16236C5.35343 0.537451 4.8647 0.17661 4.32196 0.17661H0.0596992L0 0.457492C0.875023 0.647166 1.8692 0.953089 2.47152 1.28042C2.84013 1.48038 2.94524 1.65518 3.06634 2.13033L5.06402 9.8494H7.71125L11.7698 0.17661L9.13931 0.176489Z" fill="url(#paint0_linear_78_388)"/>
<defs>
<linearGradient id="paint0_linear_78_388" x1="1425.19" y1="30.06" x2="1454.11" y2="-996.956" gradientUnits="userSpaceOnUse">
<stop stop-color="#222357"/>
<stop offset="1" stop-color="#254AA5"/>
</linearGradient>
</defs>
</svg>

<svg width="31" height="10" fill="none" xmlns="http://www.w3.org/2000/svg"><path d="M16.032 3.197c-.017 1.393 1.243 2.17 2.193 2.632.975.475 1.303.779 1.3 1.203-.008.649-.78.935-1.5.946-1.259.02-1.99-.339-2.572-.61l-.454 2.119c.584.268 1.665.503 2.785.513 2.631 0 4.352-1.297 4.361-3.309.01-2.552-3.534-2.693-3.51-3.834.009-.346.34-.716 1.063-.81.359-.047 1.348-.083 2.47.433l.44-2.05A6.72 6.72 0 0 0 20.264 0c-2.476 0-4.217 1.315-4.232 3.197ZM26.84.177c-.48 0-.885.28-1.066.71l-3.758 8.962h2.629l.523-1.444h3.212l.304 1.444H31L28.978.177H26.84Zm.368 2.613.758 3.632h-2.077l1.319-3.632ZM12.845.177l-2.072 9.672h2.505L15.35.176h-2.504Zm-3.706 0L6.532 6.76 5.477 1.162C5.353.537 4.865.177 4.322.177H.06L0 .457c.875.19 1.87.496 2.472.823.368.2.473.375.594.85l1.998 7.72h2.647L11.77.176H9.14Z" fill="url(#a)"/><defs><linearGradient id="a" x1="1425.19" y1="30.06" x2="1454.11" y2="-996.956" gradientUnits="userSpaceOnUse"><stop stop-color="#222357"/><stop offset="1" stop-color="#254AA5"/></linearGradient></defs></svg>
